ru/_assets/tracker/svg/progress.svg

<svg width="100" height="20" viewBox="0 0 100 20" fill="none" xmlns="http://www.w3.org/2000/svg">
<g clip-path="url(#clip0_3479_35391)">
<path fill-rule="evenodd" clip-rule="evenodd" d="M16.125 10C16.125 12.2782 14.2782 14.125 12 14.125C9.72182 14.125 7.875 12.2782 7.875 10C7.875 7.72182 9.72182 5.875 12 5.875C14.2782 5.875 16.125 7.72182 16.125 10ZM17.25 10C17.25 12.8995 14.8995 15.25 12 15.25C9.1005 15.25 6.75 12.8995 6.75 10C6.75 7.1005 9.1005 4.75 12 4.75C14.8995 4.75 17.25 7.1005 17.25 10ZM11.4375 12.2733L14.25 10.6495C14.75 10.3608 14.75 9.63916 14.25 9.35048L11.4375 7.72668C10.9375 7.43801 10.3125 7.79885 10.3125 8.3762L10.3125 11.6238C10.3125 12.2011 10.9375 12.562 11.4375 12.2733Z" fill="#4E79EB"/>
</g>
<path d="M24.092 4.679H27.251C28.2737 4.679 29.0493 4.85233 29.578 5.199C30.1153 5.54567 30.384 6.13067 30.384 6.954C30.384 7.292 30.3363 7.58667 30.241 7.838C30.1543 8.08067 30.0287 8.293 29.864 8.475C29.708 8.64833 29.513 8.79133 29.279 8.904C29.0537 9.01667 28.8023 9.10333 28.525 9.164C29.253 9.25067 29.799 9.463 30.163 9.801C30.5357 10.1303 30.722 10.633 30.722 11.309C30.722 11.7943 30.631 12.2103 30.449 12.557C30.2757 12.895 30.033 13.1723 29.721 13.389C29.409 13.597 29.0407 13.753 28.616 13.857C28.1913 13.9523 27.7277 14 27.225 14H24.092V4.679ZM25.314 5.797V8.657H27.16C27.4547 8.657 27.7233 8.62667 27.966 8.566C28.2087 8.49667 28.4167 8.397 28.59 8.267C28.7633 8.12833 28.8977 7.95933 28.993 7.76C29.097 7.552 29.149 7.305 29.149 7.019C29.149 6.54233 28.9843 6.22167 28.655 6.057C28.3257 5.88367 27.8577 5.797 27.251 5.797H25.314ZM25.314 9.762V12.895H27.225C27.5543 12.895 27.8533 12.869 28.122 12.817C28.3907 12.765 28.6203 12.6783 28.811 12.557C29.0103 12.4357 29.162 12.2753 29.266 12.076C29.3787 11.8767 29.435 11.6297 29.435 11.335C29.435 10.7457 29.2443 10.3383 28.863 10.113C28.4903 9.879 27.8967 9.762 27.082 9.762H25.314ZM35.1714 7.253H40.5794V14H39.4354V8.228H36.3154V14H35.1714V7.253ZM45.8388 14.13C45.3188 14.13 44.8681 14.0087 44.4868 13.766C44.1141 13.5233 43.8151 13.1897 43.5898 12.765V16.301H42.4458V7.253H43.4468L43.5638 8.566C43.7891 8.124 44.0924 7.773 44.4738 7.513C44.8551 7.253 45.3274 7.123 45.8908 7.123C46.2808 7.123 46.6534 7.19667 47.0088 7.344C47.3728 7.48267 47.6891 7.69933 47.9578 7.994C48.2351 8.28 48.4518 8.644 48.6078 9.086C48.7724 9.51933 48.8548 10.0307 48.8548 10.62C48.8548 11.218 48.7724 11.738 48.6078 12.18C48.4431 12.6133 48.2221 12.9773 47.9448 13.272C47.6674 13.558 47.3468 13.7747 46.9828 13.922C46.6188 14.0607 46.2374 14.13 45.8388 14.13ZM45.6698 13.103C46.2678 13.103 46.7488 12.8993 47.1128 12.492C47.4854 12.076 47.6718 11.452 47.6718 10.62C47.6718 9.80533 47.4854 9.19 47.1128 8.774C46.7488 8.34933 46.2678 8.137 45.6698 8.137C45.3751 8.137 45.0978 8.189 44.8378 8.293C44.5864 8.397 44.3654 8.553 44.1748 8.761C43.9928 8.96033 43.8454 9.216 43.7328 9.528C43.6288 9.84 43.5768 10.204 43.5768 10.62C43.5768 11.036 43.6288 11.4 43.7328 11.712C43.8454 12.024 43.9928 12.284 44.1748 12.492C44.3654 12.7 44.5864 12.856 44.8378 12.96C45.0978 13.0553 45.3751 13.103 45.6698 13.103ZM53.0097 14.13C52.5504 14.13 52.1214 14.052 51.7227 13.896C51.324 13.74 50.9774 13.5147 50.6827 13.22C50.3967 12.9167 50.1714 12.5483 50.0067 12.115C49.842 11.6817 49.7597 11.1833 49.7597 10.62C49.7597 10.0653 49.842 9.57133 50.0067 9.138C50.1714 8.696 50.3967 8.32767 50.6827 8.033C50.9774 7.73833 51.324 7.513 51.7227 7.357C52.1214 7.201 52.5504 7.123 53.0097 7.123C53.4777 7.123 53.911 7.201 54.3097 7.357C54.7084 7.513 55.0507 7.73833 55.3367 8.033C55.6314 8.32767 55.861 8.696 56.0257 9.138C56.199 9.57133 56.2857 10.0653 56.2857 10.62C56.2857 11.1833 56.199 11.6817 56.0257 12.115C55.861 12.5483 55.6314 12.9167 55.3367 13.22C55.0507 13.5147 54.7084 13.74 54.3097 13.896C53.911 14.052 53.4777 14.13 53.0097 14.13ZM53.0097 13.103C53.313 13.103 53.5904 13.0553 53.8417 12.96C54.1017 12.856 54.327 12.7043 54.5177 12.505C54.7084 12.297 54.8557 12.037 54.9597 11.725C55.0637 11.413 55.1157 11.0447 55.1157 10.62C55.1157 10.1953 55.0637 9.827 54.9597 9.515C54.8557 9.203 54.7084 8.94733 54.5177 8.748C54.327 8.54 54.1017 8.38833 53.8417 8.293C53.5904 8.189 53.313 8.137 53.0097 8.137C52.7064 8.137 52.429 8.189 52.1777 8.293C51.9264 8.38833 51.7054 8.54 51.5147 8.748C51.3327 8.94733 51.1897 9.203 51.0857 9.515C50.9817 9.827 50.9297 10.1953 50.9297 10.62C50.9297 11.0447 50.9817 11.413 51.0857 11.725C51.1897 12.037 51.3327 12.297 51.5147 12.505C51.7054 12.7043 51.9264 12.856 52.1777 12.96C52.429 13.0553 52.7064 13.103 53.0097 13.103ZM63.1791 14H57.6801V7.253H58.8241V13.025H62.1391V7.253H63.2831V13.025H64.2971V15.924H63.3221L63.1791 14ZM70.7298 13.428C70.6345 13.4973 70.5175 13.571 70.3788 13.649C70.2401 13.727 70.0711 13.805 69.8718 13.883C69.6725 13.9523 69.4471 14.0087 69.1958 14.052C68.9445 14.104 68.6628 14.13 68.3508 14.13C67.2155 14.13 66.3531 13.8223 65.7638 13.207C65.1745 12.5917 64.8798 11.7293 64.8798 10.62C64.8798 10.074 64.9578 9.58433 65.1138 9.151C65.2785 8.71767 65.5038 8.35367 65.7898 8.059C66.0758 7.75567 66.4138 7.526 66.8038 7.37C67.1938 7.20533 67.6185 7.123 68.0778 7.123C68.5631 7.123 68.9965 7.20533 69.3778 7.37C69.7591 7.53467 70.0711 7.77733 70.3138 8.098C70.5651 8.41867 70.7341 8.81733 70.8208 9.294C70.9161 9.762 70.9161 10.308 70.8208 10.932H66.0628C66.1061 11.66 66.3228 12.206 66.7128 12.57C67.1028 12.9253 67.6835 13.103 68.4548 13.103C68.9748 13.103 69.4211 13.0293 69.7938 12.882C70.1665 12.7347 70.4785 12.5743 70.7298 12.401V13.428ZM68.0518 8.137C67.5578 8.137 67.1331 8.28867 66.7778 8.592C66.4225 8.89533 66.1971 9.35467 66.1018 9.97H69.7288C69.7635 9.346 69.6205 8.88667 69.2998 8.592C68.9791 8.28867 68.5631 8.137 68.0518 8.137ZM75.2679 14.13C74.7479 14.13 74.2756 14.052 73.8509 13.896C73.4349 13.7313 73.0796 13.5017 72.7849 13.207C72.4903 12.9037 72.2649 12.5353 72.1089 12.102C71.9529 11.6687 71.8749 11.1747 71.8749 10.62C71.8749 10.074 71.9529 9.58433 72.1089 9.151C72.2736 8.71767 72.5033 8.35367 72.7979 8.059C73.0926 7.75567 73.4523 7.526 73.8769 7.37C74.3016 7.20533 74.7826 7.123 75.3199 7.123C75.7359 7.123 76.1173 7.17067 76.4639 7.266C76.8106 7.35267 77.0966 7.48267 77.3219 7.656V8.683C77.0446 8.501 76.7326 8.36667 76.3859 8.28C76.0479 8.18467 75.6969 8.137 75.3329 8.137C74.5443 8.137 73.9636 8.34067 73.5909 8.748C73.2269 9.15533 73.0449 9.77933 73.0449 10.62C73.0449 11.4607 73.2226 12.0847 73.5779 12.492C73.9333 12.8993 74.4966 13.103 75.2679 13.103C75.6753 13.103 76.0479 13.0553 76.3859 12.96C76.7326 12.856 77.0446 12.726 77.3219 12.57V13.597C77.0793 13.7443 76.7846 13.87 76.4379 13.974C76.0999 14.078 75.7099 14.13 75.2679 14.13ZM81.7679 14.13C81.2479 14.13 80.7756 14.052 80.3509 13.896C79.9349 13.7313 79.5796 13.5017 79.2849 13.207C78.9903 12.9037 78.7649 12.5353 78.6089 12.102C78.4529 11.6687 78.3749 11.1747 78.3749 10.62C78.3749 10.074 78.4529 9.58433 78.6089 9.151C78.7736 8.71767 79.0033 8.35367 79.2979 8.059C79.5926 7.75567 79.9523 7.526 80.3769 7.37C80.8016 7.20533 81.2826 7.123 81.8199 7.123C82.2359 7.123 82.6173 7.17067 82.9639 7.266C83.3106 7.35267 83.5966 7.48267 83.8219 7.656V8.683C83.5446 8.501 83.2326 8.36667 82.8859 8.28C82.5479 8.18467 82.1969 8.137 81.8329 8.137C81.0443 8.137 80.4636 8.34067 80.0909 8.748C79.7269 9.15533 79.5449 9.77933 79.5449 10.62C79.5449 11.4607 79.7226 12.0847 80.0779 12.492C80.4333 12.8993 80.9966 13.103 81.7679 13.103C82.1753 13.103 82.5479 13.0553 82.8859 12.96C83.2326 12.856 83.5446 12.726 83.8219 12.57V13.597C83.5793 13.7443 83.2846 13.87 82.9379 13.974C82.5999 14.078 82.2099 14.13 81.7679 14.13ZM90.7249 13.428C90.6296 13.4973 90.5126 13.571 90.3739 13.649C90.2353 13.727 90.0663 13.805 89.8669 13.883C89.6676 13.9523 89.4423 14.0087 89.1909 14.052C88.9396 14.104 88.6579 14.13 88.3459 14.13C87.2106 14.13 86.3483 13.8223 85.7589 13.207C85.1696 12.5917 84.8749 11.7293 84.8749 10.62C84.8749 10.074 84.9529 9.58433 85.1089 9.151C85.2736 8.71767 85.4989 8.35367 85.7849 8.059C86.0709 7.75567 86.4089 7.526 86.7989 7.37C87.1889 7.20533 87.6136 7.123 88.0729 7.123C88.5583 7.123 88.9916 7.20533 89.3729 7.37C89.7543 7.53467 90.0663 7.77733 90.3089 8.098C90.5603 8.41867 90.7293 8.81733 90.8159 9.294C90.9113 9.762 90.9113 10.308 90.8159 10.932H86.0579C86.1013 11.66 86.3179 12.206 86.7079 12.57C87.0979 12.9253 87.6786 13.103 88.4499 13.103C88.9699 13.103 89.4163 13.0293 89.7889 12.882C90.1616 12.7347 90.4736 12.5743 90.7249 12.401V13.428ZM88.0469 8.137C87.5529 8.137 87.1283 8.28867 86.7729 8.592C86.4176 8.89533 86.1923 9.35467 86.0969 9.97H89.7239C89.7586 9.346 89.6156 8.88667 89.2949 8.592C88.9743 8.28867 88.5583 8.137 88.0469 8.137Z" fill="#4768C2"/>
<defs>
<clipPath id="clip0_3479_35391">
<rect width="12" height="12" fill="white" transform="translate(6 4)"/>
</clipPath>
</defs>
</svg>

<svg xmlns="http://www.w3.org/2000/svg" width="100" height="20" fill="none" viewBox="0 0 100 20">
    <g clip-path="url(#clip0_3479_35391)">
        <path fill="#4E79EB" fill-rule="evenodd" d="M16.125 10a4.125 4.125 0 1 1-8.25 0 4.125 4.125 0 0 1 8.25 0Zm1.125 0a5.25 5.25 0 1 1-10.5 0 5.25 5.25 0 0 1 10.5 0Zm-5.813 2.273 2.813-1.623a.75.75 0 0 0 0-1.3l-2.813-1.623a.75.75 0 0 0-1.124.65v3.247a.75.75 0 0 0 1.124.65Z" clip-rule="evenodd"/>
    </g>
    <path fill="#4768C2" d="M24.092 4.679h3.159c1.023 0 1.798.173 2.327.52.537.347.806.932.806 1.755 0 .338-.048.633-.143.884a1.881 1.881 0 0 1-.377.637 1.862 1.862 0 0 1-.585.429c-.225.113-.477.2-.754.26.728.087 1.274.299 1.638.637.373.33.559.832.559 1.508 0 .485-.091.901-.273 1.248a2.246 2.246 0 0 1-.728.832c-.312.208-.68.364-1.105.468a6.353 6.353 0 0 1-1.391.143h-3.133V4.679Zm1.222 1.118v2.86h1.846c.295 0 .563-.03.806-.091.243-.07.45-.169.624-.299a1.44 1.44 0 0 0 .403-.507 1.64 1.64 0 0 0 .156-.741c0-.477-.165-.797-.494-.962-.33-.173-.797-.26-1.404-.26h-1.937Zm0 3.965v3.133h1.911c.33 0 .628-.026.897-.078a1.97 1.97 0 0 0 .689-.26c.2-.121.351-.282.455-.481.113-.2.169-.446.169-.741 0-.59-.19-.997-.572-1.222-.373-.234-.966-.351-1.781-.351h-1.768Zm9.857-2.509h5.408V14h-1.144V8.228h-3.12V14h-1.144V7.253ZM45.84 14.13c-.52 0-.97-.121-1.352-.364a2.647 2.647 0 0 1-.897-1.001v3.536h-1.144V7.253h1l.118 1.313c.225-.442.528-.793.91-1.053.381-.26.853-.39 1.417-.39.39 0 .762.074 1.118.221.364.139.68.355.949.65.277.286.494.65.65 1.092.164.433.247.945.247 1.534 0 .598-.083 1.118-.247 1.56a3.262 3.262 0 0 1-.663 1.092 2.78 2.78 0 0 1-.962.65 3.186 3.186 0 0 1-1.144.208Zm-.17-1.027c.599 0 1.08-.204 1.444-.611.372-.416.559-1.04.559-1.872 0-.815-.187-1.43-.56-1.846-.363-.425-.844-.637-1.442-.637a2.22 2.22 0 0 0-.832.156c-.252.104-.473.26-.663.468-.182.2-.33.455-.442.767a3.457 3.457 0 0 0-.156 1.092c0 .416.052.78.156 1.092.112.312.26.572.442.78.19.208.411.364.663.468.26.095.537.143.832.143Zm7.34 1.027a3.5 3.5 0 0 1-1.286-.234 2.997 2.997 0 0 1-1.04-.676 3.295 3.295 0 0 1-.676-1.105c-.165-.433-.247-.932-.247-1.495 0-.555.082-1.049.247-1.482.164-.442.39-.81.676-1.105.294-.295.641-.52 1.04-.676a3.5 3.5 0 0 1 1.287-.234c.468 0 .901.078 1.3.234.398.156.74.381 1.027.676.294.295.524.663.689 1.105.173.433.26.927.26 1.482 0 .563-.087 1.062-.26 1.495a3.188 3.188 0 0 1-.69 1.105c-.285.295-.628.52-1.026.676a3.537 3.537 0 0 1-1.3.234Zm0-1.027c.304 0 .581-.048.833-.143.26-.104.485-.256.676-.455.19-.208.338-.468.442-.78.104-.312.156-.68.156-1.105 0-.425-.052-.793-.156-1.105a2.009 2.009 0 0 0-.442-.767 1.7 1.7 0 0 0-.676-.455 2.156 2.156 0 0 0-.832-.156c-.304 0-.581.052-.832.156a1.718 1.718 0 0 0-.663.455 2.11 2.11 0 0 0-.43.767c-.103.312-.155.68-.155 1.105 0 .425.052.793.156 1.105.104.312.247.572.429.78.19.2.411.351.663.455.251.095.528.143.832.143ZM63.18 14h-5.5V7.253h1.144v5.772h3.315V7.253h1.144v5.772h1.014v2.899h-.975L63.18 14Zm7.55-.572c-.094.07-.212.143-.35.221a4.075 4.075 0 0 1-.507.234c-.2.07-.425.126-.676.169a4.185 4.185 0 0 1-.845.078c-1.135 0-1.998-.308-2.587-.923-.59-.615-.884-1.478-.884-2.587 0-.546.078-1.036.234-1.469.164-.433.39-.797.676-1.092a2.812 2.812 0 0 1 1.014-.689c.39-.165.814-.247 1.274-.247.485 0 .918.082 1.3.247.381.165.693.407.936.728.251.32.42.72.507 1.196.095.468.095 1.014 0 1.638h-4.758c.043.728.26 1.274.65 1.638.39.355.97.533 1.742.533.52 0 .966-.074 1.339-.221a4.7 4.7 0 0 0 .936-.481v1.027Zm-2.677-5.291c-.494 0-.919.152-1.274.455-.356.303-.58.763-.676 1.378h3.627c.034-.624-.108-1.083-.43-1.378-.32-.303-.736-.455-1.247-.455Zm7.216 5.993c-.52 0-.992-.078-1.417-.234a3.1 3.1 0 0 1-1.066-.689 3.04 3.04 0 0 1-.676-1.105 4.36 4.36 0 0 1-.234-1.482c0-.546.078-1.036.234-1.469a3.06 3.06 0 0 1 .689-1.092 2.85 2.85 0 0 1 1.079-.689 3.967 3.967 0 0 1 1.443-.247c.416 0 .797.048 1.144.143.347.087.633.217.858.39v1.027a3.03 3.03 0 0 0-.936-.403 3.86 3.86 0 0 0-1.053-.143c-.789 0-1.37.204-1.742.611-.364.407-.546 1.031-.546 1.872 0 .84.178 1.465.533 1.872.355.407.919.611 1.69.611.407 0 .78-.048 1.118-.143.347-.104.659-.234.936-.39v1.027a3.984 3.984 0 0 1-2.054.533Zm6.5 0c-.52 0-.992-.078-1.417-.234a3.1 3.1 0 0 1-1.066-.689 3.04 3.04 0 0 1-.676-1.105 4.36 4.36 0 0 1-.234-1.482c0-.546.078-1.036.234-1.469a3.06 3.06 0 0 1 .689-1.092 2.85 2.85 0 0 1 1.079-.689 3.967 3.967 0 0 1 1.443-.247c.416 0 .797.048 1.144.143.347.087.633.217.858.39v1.027a3.03 3.03 0 0 0-.936-.403 3.86 3.86 0 0 0-1.053-.143c-.789 0-1.37.204-1.742.611-.364.407-.546 1.031-.546 1.872 0 .84.178 1.465.533 1.872.355.407.919.611 1.69.611.407 0 .78-.048 1.118-.143.347-.104.659-.234.936-.39v1.027a3.984 3.984 0 0 1-2.054.533Zm8.957-.702c-.095.07-.212.143-.351.221a4.062 4.062 0 0 1-.507.234c-.2.07-.425.126-.676.169a4.185 4.185 0 0 1-.845.078c-1.135 0-1.998-.308-2.587-.923-.59-.615-.884-1.478-.884-2.587 0-.546.078-1.036.234-1.469.165-.433.39-.797.676-1.092A2.812 2.812 0 0 1 86.8 7.37c.39-.165.815-.247 1.274-.247.485 0 .919.082 1.3.247.381.165.693.407.936.728.251.32.42.72.507 1.196.095.468.095 1.014 0 1.638h-4.758c.043.728.26 1.274.65 1.638.39.355.97.533 1.742.533.52 0 .966-.074 1.339-.221.373-.147.685-.308.936-.481v1.027Zm-2.678-5.291c-.494 0-.919.152-1.274.455-.355.303-.58.763-.676 1.378h3.627c.035-.624-.108-1.083-.43-1.378-.32-.303-.736-.455-1.247-.455Z"/>
    <defs>
        <clipPath id="clip0_3479_35391">
            <path fill="#fff" d="M6 4h12v12H6z"/>
        </clipPath>
    </defs>
</svg>
